!!!OTL: DER BURSCH VON ECHTEM SCHROT UND KORN
!!!ARE: Europa, Mitteleuropa, Deutschland
!!!SCT: F0488
!!!YEM: Copyright 1995, estate of Helmut Schaffrath.
**kern
*ICvox
*Ivox
*M4/4
*k[]
*C:
{4G
=1
4G
8.E
16F
4.G
8c
=2
8c
8B
8A
8G
4.F}
{8F
=3
8E
8G
8G
8c
8c
8G
8E
8C
=4
4G
8.G
16G
4G}
{8G
8B
=5
4.d
8B
8d
8c
8B
8A
=6
4G
8.d
16B
4G}
{4G
=7
4.A
8A
4.B
8B
=8
4c
4d
4e
8r}
{8c
=9
4A
8f
8d
4c
4B
=10
4c
8.e
16e
4f}
{8.d
16d
=11
4e
4c
8.d
16d
8.B
16B
=12
4c
8.c
16c
4c}
==
!!!AGN: Studenten -,  Burschenschafts - Lied
!!!ONB: ESAC (Essen Associative Code) Database: FINK
!!!AMT: simple quadruple
!!!AIN: vox
!!!EED: Helmut Schaffrath
!!!EEV: 1.0
*-
